X: 35438
T: Roving Bachelor, The
R: reel
M: 4/4
K: Gmajor
|AB BA Bdge|d2 de dBGA|AB BA Bdge|dBAB G2GA|
AB BA Bd ge|d2 de dBGA|AB BA Bdge|dBAB G2 Bd|
gfed edBd|~g2 fg ea~a2|gfed efge|dBAB G2 Bd|
gfed edBd|~g2 fg ea~a2|bg ~g2 a3b|ge dB A4|

